X: 70
T: Galopade
B:[[Notböcker/Melodier til gamle danske Almuedanse for Violin solo]]
O:Danmark
Z:Søren Bak Vestergaard
M: 2/4
L: 1/8
K: Bb
BdBF|(Bd) !>!f2|BdBF|(Bd) !>!f2|cecF|(ce) !>!g2|cecF|(ce) !>!g2|\
gffA|(B/c/d/c/ B)B|gffA|Bb !>!B2|gffA|(B/c/d/c/ B)B|gffA|(Bd) B2:|\
|:(cd/=e/ f)g|afaf|bgbg|(!4!d'c') c'2|(cd/=e/ f)g|afaf|bgb=e|(gf) f2:|\
|:(df) B2|(df) B2|_egbg|(gf) f2|(df) B2|(df) B2|FA/c/ (.f.A)|(cB) B2:|\
|:(df) B2|dfed|(eg) c2|egfe|(df) B2|dfed|egfA|(cB) B2:|

